img/page-in-all-notes.svg

<svg clip-rule="evenodd" fill-rule="evenodd" stroke-linejoin="round" stroke-miterlimit="2" viewBox="0 0 800 800"
     xmlns="http://www.w3.org/2000/svg">
    <path d="m448.99 182.322c9.763-9.763 25.59-9.763 35.353 0l200 200.001c9.764 9.764 9.764 25.59 0 35.354l-200 200c-9.763 9.763-25.59 9.763-35.353 0-9.763-9.764-9.763-25.59 0-35.354l157.32-157.323h-472.977c-13.807 0-25-11.193-25-25s11.193-25 25-25h472.977l-157.32-157.322c-9.763-9.763-9.763-25.593 0-35.356z"
          fill="#ffffff"/>
</svg>

<?xml version="1.0" encoding="UTF-8" standalone="no"?>
<!DOCTYPE svg PUBLIC "-//W3C//DTD SVG 1.1//EN" "http://www.w3.org/Graphics/SVG/1.1/DTD/svg11.dtd">
<svg width="100%" height="100%" viewBox="0 0 800 800" version="1.1" xmlns="http://www.w3.org/2000/svg"
     xmlns:xlink="http://www.w3.org/1999/xlink" xml:space="preserve" xmlns:serif="http://www.serif.com/"
     style="fill-rule:evenodd;clip-rule:evenodd;stroke-linejoin:round;stroke-miterlimit:2;">
    <path d="M448.99,182.322C458.753,172.559 474.58,172.559 484.343,182.322L684.343,382.323C694.107,392.087 694.107,407.913 684.343,417.677L484.343,617.677C474.58,627.44 458.753,627.44 448.99,617.677C439.227,607.913 439.227,592.087 448.99,582.323L606.31,425L133.333,425C119.526,425 108.333,413.807 108.333,400C108.333,386.193 119.526,375 133.333,375L606.31,375L448.99,217.678C439.227,207.915 439.227,192.085 448.99,182.322Z"
          style="fill:rgb(0,128,255);"/>
</svg>
